X:1
T:Howell, 87.87.47
T:Howell, 87.87.47
T:William Batchelder Bradbury, 1864
T:Public Domain Courtesy of the Cyber Hymnal™
C:William Batchelder Bradbury, 1864
Z:Public Domain
Z:Courtesy of the Cyber Hymnal™
%%score ( 1 2 ) ( 3 4 )
L:1/8
Q:1/4=100
M:3/4
K:G
V:1 treble 
V:2 treble 
V:3 bass 
V:4 bass 
V:1
|: G[GB] | [Gd]2 [Gd]2 [Ge][Gd] | [GB]2 [FA]2 [GB][DG] | [CE]2 [B,D]2 [EG][FA] | G4 :| [GB]G | %6
 [FA]2 !fermata!D2 BG | A2 !fermata![Dd]2 [Gd][Gd] | [Ge][Gd] [GB]2 [FA]2 | G4 |] %10
V:2
|: G x | x6 | x6 | x6 | G4 :| x G | x2 D2 BG | A2 x4 | x6 | G4 |] %10
V:3
|: [G,B,][G,D] | [G,B,]2 [G,B,]2 [C,C][G,B,] | [D,D]2 [D,D]2 [G,D][B,,G,] | %3
 [C,G,]2 G,2 [E,B,][D,C] | [G,B,]4 :| [G,D][G,B,] | [D,A,]2 !fermata!D,2 B,B, | %7
 A,2 !fermata![D,D]2 [G,B,][G,B,] | [C,C][G,,G,B,] [D,D]2 [D,C]2 | [G,,B,]4 |] %10
V:4
|: x2 | x6 | x6 | x2 G,2 x2 | x4 :| x2 | x2 D,2 B,B, | A,2 x4 | x6 | x4 |] %10

